X:0436
T:The Parlour.
M:6/8
L:1/8
Q:3/8=120
I: || ::
Z:Jack Campin * www.campin.me.uk * 2009
K:G
 d3     e3   | dcB    TA2G   | EFG    D2B  | c2B {B}A3   |
 d3     e3   | dcB     A2g   | dBG   TE2D  | E3     G3  ||
(Gb).d (db).d|(ac').d (ac').d|(gb).d (gb).d|(fa).d (fa).d|
(gb).d (gb).d|(ac').d (ab)c' |(bag)   e2d  |Te3     g3  |]
<end>
<start>
